img/footer/footer-left.svg

<svg width="252" height="296" viewBox="0 0 252 296" fill="none" xmlns="http://www.w3.org/2000/svg">
<g clip-path="url(#clip0_191_725)">
<path d="M37.4881 111.577C32.3949 108.308 26.9832 105.635 21.3474 103.497C20.5034 103.197 20.195 104.546 21.039 104.846C26.5681 106.918 31.8792 109.588 36.8657 112.791C37.6035 113.29 38.2495 112.061 37.4881 111.577Z" fill="white"/>
<path d="M36.1007 127.578C30.0377 129.971 23.7489 131.843 17.3585 133.184C16.5006 133.388 16.9054 134.722 17.7782 134.542C24.1686 133.201 30.4425 131.305 36.5204 128.936C37.3514 128.583 36.9466 127.249 36.1007 127.578Z" fill="white"/>
<path d="M48.8291 99.5807C46.5607 93.6251 44.3072 87.6933 42.0388 81.7377C41.7207 80.9115 40.3777 81.2863 40.7106 82.1362C42.979 88.0919 45.2326 94.0237 47.501 99.9793C47.7954 100.82 49.1384 100.445 48.8291 99.5807Z" fill="white"/>
</g>
<g clip-path="url(#clip1_191_725)">
<path d="M392.503 62.2242C374.933 40.7653 351.79 24.2467 326.253 13.6385C300.232 2.81812 271.333 -2.03136 243.221 0.817705C228.62 2.30286 213.837 6.09151 201.569 14.3962C189.209 22.7616 180.122 35.2187 173.185 48.282C166.096 61.5877 160.825 76.318 159.28 91.3817C157.856 105.112 159.886 119.812 168.156 131.208C180.97 148.848 211.929 155.122 225.621 135.118C229.408 129.571 231.286 122.964 232.104 116.356C232.982 109.204 232.74 101.717 230.953 94.7157C227.53 81.2584 217.745 71.4382 205.386 65.6795C179.576 53.6164 147.89 57.0716 122.414 68.1951C95.8777 79.7732 74.5517 100.717 60.4051 125.813C46.834 149.818 39.5637 177.339 39.7152 204.95C39.8667 231.623 47.046 258.507 62.0712 280.693C65.7063 286.058 69.8261 291.15 74.2791 295.848C74.9455 296.545 76.0361 295.484 75.3393 294.787C57.3152 275.813 46.4704 251.172 42.7142 225.379C38.9276 199.373 42.2598 172.55 51.6202 148.06C61.4653 122.267 78.0354 98.6256 100.573 82.4102C123.565 65.831 152.798 57.1019 181.121 60.5875C194.208 62.1939 207.688 66.5584 217.654 75.4997C228.62 85.3502 232.013 99.8077 230.831 114.083C229.771 126.904 224.046 140.18 210.99 144.544C200.387 148.09 188.24 145.423 179.061 139.422C154.645 123.509 158.432 89.1085 167.156 65.4976C172.367 51.4038 179.909 37.5525 190.118 26.429C200.115 15.548 212.928 8.63749 227.196 5.12161C240.889 1.72698 255.278 1.09049 269.303 1.96946C282.874 2.81812 296.324 5.27316 309.32 9.24367C334.947 17.0635 358.939 30.6723 378.326 49.2216C382.991 53.677 387.353 58.4053 391.443 63.4063C392.049 64.0428 393.109 62.982 392.503 62.2242Z" fill="white"/>
</g>
<defs>
<clipPath id="clip0_191_725">
<rect x="20.1067" y="139.171" width="38" height="49" rx="2" transform="rotate(-121.946 20.1067 139.171)" fill="white"/>
</clipPath>
<clipPath id="clip1_191_725">
<rect x="329.685" width="296" height="290" rx="2" transform="rotate(90 329.685 0)" fill="white"/>
</clipPath>
</defs>
</svg>

<svg width="252" height="296" fill="none" xmlns="http://www.w3.org/2000/svg"><g clip-path="url(#clip0_191_725)" fill="#fff"><path d="M37.488 111.577c-5.093-3.269-10.505-5.942-16.14-8.08-.845-.3-1.153 1.049-.309 1.349a83.582 83.582 0 0115.827 7.945c.737.499 1.383-.73.622-1.214zM36.1 127.578a115.996 115.996 0 01-18.742 5.606c-.857.204-.453 1.538.42 1.358 6.39-1.341 12.665-3.237 18.742-5.606.831-.353.427-1.687-.42-1.358zM48.83 99.58c-2.27-5.955-4.523-11.887-6.791-17.842-.318-.826-1.661-.452-1.328.398 2.268 5.956 4.522 11.888 6.79 17.843.294.841 1.637.466 1.328-.398z"/></g><g clip-path="url(#clip1_191_725)"><path d="M392.503 62.224c-17.57-21.459-40.713-37.977-66.25-48.585-26.021-10.82-54.92-15.67-83.032-12.821-14.601 1.485-29.384 5.274-41.652 13.578-12.36 8.366-21.447 20.823-28.384 33.886-7.089 13.306-12.36 28.036-13.905 43.1-1.424 13.73.606 28.43 8.876 39.826 12.814 17.64 43.773 23.914 57.465 3.91 3.787-5.547 5.665-12.154 6.483-18.762.878-7.152.636-14.639-1.151-21.64-3.423-13.458-13.208-23.278-25.567-29.036-25.81-12.064-57.496-8.608-82.972 2.515-26.536 11.578-47.862 32.522-62.009 57.618-13.571 24.005-20.841 51.526-20.69 79.137.152 26.673 7.331 53.557 22.356 75.743a119.81 119.81 0 0012.208 15.155c.666.697 1.757-.364 1.06-1.061-18.024-18.974-28.869-43.615-32.625-69.408-3.786-26.006-.454-52.829 8.906-77.319 9.845-25.793 26.415-49.434 48.953-65.65 22.992-16.579 52.225-25.308 80.548-21.822 13.087 1.606 26.567 5.97 36.533 14.912 10.966 9.85 14.359 24.308 13.177 38.583-1.06 12.821-6.785 26.097-19.841 30.461-10.603 3.546-22.75.879-31.929-5.122-24.416-15.913-20.629-50.313-11.905-73.924 5.211-14.094 12.753-27.946 22.962-39.069 9.997-10.881 22.81-17.792 37.078-21.307 13.693-3.395 28.082-4.032 42.107-3.153a174.308 174.308 0 0140.017 7.275c25.627 7.82 49.619 21.428 69.006 39.978a157.128 157.128 0 0113.117 14.184c.606.637 1.666-.424 1.06-1.182z" fill="#fff"/></g><defs><clipPath id="clip0_191_725"><rect x="20.107" y="139.171" width="38" height="49" rx="2" transform="rotate(-121.946 20.107 139.171)" fill="#fff"/></clipPath><clipPath id="clip1_191_725"><rect x="329.685" width="296" height="290" rx="2" transform="rotate(90 329.685 0)" fill="#fff"/></clipPath></defs></svg>
